<?xml version="1.0" encoding="UTF-8"?>
<map version="1.10" tiledversion="1.11.2" orientation="orthogonal" renderorder="right-down" width="19" height="19" tilewidth="32" tileheight="32" infinite="0" nextlayerid="3" nextobjectid="15">
 <tileset firstgid="1" source="map.tsx"/>
 <layer id="1" name="tiled_layer" width="19" height="19">
  <data encoding="csv">
1,2,3,4,5,6,7,8,9,10,11,12,13,14,15,16,17,18,19,
20,21,22,23,24,25,26,27,28,29,30,31,32,33,34,35,36,37,38,
39,40,41,42,43,44,45,46,47,48,49,50,51,52,53,54,55,56,57,
58,59,60,61,62,63,64,65,66,67,68,69,70,71,72,73,74,75,76,
77,78,79,80,81,82,83,84,85,86,87,88,89,90,91,92,93,94,95,
96,97,98,99,100,101,102,103,104,105,106,107,108,109,110,111,112,113,114,
115,116,117,118,119,120,121,122,123,124,125,126,127,128,129,130,131,132,133,
134,135,136,137,138,139,140,141,142,143,144,145,146,147,148,149,150,151,152,
153,154,155,156,157,158,159,160,161,162,163,164,165,166,167,168,169,170,171,
172,173,174,175,176,177,178,179,180,181,182,183,184,185,186,187,188,189,190,
191,192,193,194,195,196,197,198,199,200,201,202,203,204,205,206,207,208,209,
210,211,212,213,214,215,216,217,218,219,220,221,222,223,224,225,226,227,228,
229,230,231,232,233,234,235,236,237,238,239,240,241,242,243,244,245,246,247,
248,249,250,251,252,253,254,255,256,257,258,259,260,261,262,263,264,265,266,
267,268,269,270,271,272,273,274,275,276,277,278,279,280,281,282,283,284,285,
286,287,288,289,290,291,292,293,294,295,296,297,298,299,300,301,302,303,304,
305,306,307,308,309,310,311,312,313,314,315,316,317,318,319,320,321,322,323,
324,325,326,327,328,329,330,331,332,333,334,335,336,337,338,339,340,341,342,
343,344,345,346,347,348,349,350,351,352,353,354,355,356,357,358,359,360,361
</data>
 </layer>
 <objectgroup id="2" name="walls">
  <object id="1" x="20.1942" y="29.5146" width="10.8738" height="153.786"/>
  <object id="2" x="18.6408" y="23.301" width="584.078" height="9.32039"/>
  <object id="3" x="347.961" y="24.8544" width="18.6408" height="163.107"/>
  <object id="4" x="585.631" y="23.301" width="17.0874" height="366.602"/>
  <object id="5" x="518.835" y="355.728" width="86.9903" height="20.1942"/>
  <object id="6" x="587.184" y="464.466" width="18.6408" height="141.359"/>
  <object id="7" x="23.301" y="588.738" width="587.184" height="18.6408"/>
  <object id="8" x="304.466" y="459.806" width="54.3689" height="15.534"/>
  <object id="9" x="346.408" y="456.699" width="10.8738" height="142.913"/>
  <object id="10" x="236.117" y="458.252" width="18.6408" height="138.252"/>
  <object id="11" x="23.301" y="459.806" width="172.427" height="13.9806"/>
  <object id="12" x="10.8738" y="386.796" width="23.301" height="217.476"/>
  <object id="13" x="349.515" y="304.466" width="17.0874" height="71.4563"/>
  <object id="14" x="343.301" y="360.388" width="94.7573" height="13.9806"/>
 </objectgroup>
</map>
